X:1
T:Kickehihi, kakakanei
T:Kickehihi, kakakanei
T:Der Weckruf der Hühner
T:Johann Schein Tenorstimme G. Weissenbeck
C:Johann Schein
%%score 1 2 3 4
L:1/8
M:2/2
K:G
V:1 treble nm="Sopran" snm="S."
V:2 treble nm="Alt" snm="A."
V:3 treble-8 nm="Tenor" snm="T."
V:4 bass nm="Bass" snm="B."
V:1
 z2 z2 z BBB | d2 z2 z BBB | d2 z2 A2 A2 | A2 A2 A3 B/c/ | d4 z2 d2 | e2 d2 F2 G2 | A2 Bc d2 AB |1 %7
w: Ka- ka- ka-|nei, ka- ka- ka-|nei, da da|da da da! _ _|_ ist|Hahn und Hen- nen|Weck- * * * ge- *|
w: ||||* ist|Hahn und Hen- nen|Lieb- * * * ge- *|
 G4 z4 ::2 G8 || z2 d2 dcde | d3 e cBcd | c3 d BABc | B3 c A4 | z edc d3 d | c3 c B4 | z edc (d4 | %16
w: schrei,|schrei;|wenn bri- * * *|cht her- vor _ _ _|_ der Mor- * * *|* gen- stern,|da las- sen sie sich|hö- ren gern,|da las- sen sie|
w: schrei,|schrei;|wenn Fe- * * bo|folgt dem * * * *||||||
 d2) c/B/A/G/ A3 (G |1 G8) :|2 G8 |] %19
w: _ sich _ _ _ hör- en|gern,|gern.|
w: |||
V:2
 z2 z2 z2 z2 | z BBB d2 z2 | z BBB d2 z2 | F2 F2 F2 F2 | F3 G/A/ B4 | z2 G2 c2 B2 | F2 G2 G2 F2 |1 %7
w: |ka- ka- ka- nei,|ka- ka- ka- nei,|da da da da|da! _ _ _|ist Hahn und|Hen- nen weck- ge-|
 G4 z4 ::2 G4 z2 B2 || BABc B3 c | AGAB A3 B | GFGA G3 A | F4 z FGA | B2 c2 c2 B2 | cedc d3 d | %15
w: schrei,|schrei; wenn|bri- * * * cht her-|vor _ _ _ _ der|Mor- * * * * gen-|stern, wenn bricht her-|vor der Mor- gen-|stern, da las- sen sie sich|
 c3 c BBAG | F2 G2 G2 F2 |1 G4 z2 B2 :|2 G8 |] %19
w: hö- ren gern, da las- sen|sie sich hö- ren|gern, wenn|gern.|
V:3
 z2 z2 z2 z2 | G>G G2 B4 | B>A G2 D4 | A>A A2 z2 z2 | A>A A2 z2 z2 | G2 B2 A2 G2 | A>A A2 A>AAA |1 %7
w: |Ki- ke- hi- hi,|ki- ke- hi- hi,|ha ha ha|ha ha ha|ist Hahn und Henn'|Hahn und Henn', Hahn und Henn' ge-|
 G4 z4 ::2 G4 z4 || z4 B2 BA | Bc A2 A>A A2 | G>G G2 B>B B2 | A>A A2 z4 | z2 z2 z cBA | %14
w: schrei,|schrei;|wenn bricht her-|vor der Stern, bricht her- vor,|Mor- gen- stern, bricht her- vor|Mor- gen- stern|da las- sen|
 G3 A B>B B2 | c2 c2 z dcB | A2 A>B A/G/A/B<AA/ |1 G4 z4 :|2 G8 |] %19
w: sie, da las- sen sie|hö- ren, da las- sen|sie sich _ hö _ _ _ _ ren|gern,|gern.|
V:4
 G,>G, G,2 G,4 | G,,4 G,>G, G,2 | G,2 G,,2 z D,D,>D, | D,4 z D,D,>D, | D,3 E,/F,/ G,2 G,,2 | %5
w: Kik- ke- hi- hi,|_ ki- ke- hi-|hi, _ ha ha ha|ha, ha ha ha|ha! _ _ _ ist|
 C,2 B,,2 A,,2 G,,2 | D,4 D,4 |1 G,,4 z4 ::2 G,,4 z2 G,2 || G,F,G,A, G,2 G,2 | F,E,F,G, F,2 F,2 | %11
w: Hahn und Hen- nen|Weck- ge-|schrei,|schrei; wenn|bri- * * * cht her-|vor _ _ _ _ der|
 E,D,E,F, E,2 E,2 | D,4 z D,E,F, | G,2 E,2 F,2 G,2 | C,C,B,,A,, B,,2 G,,2 | A,,2 A,,2 G,,G,F,E, | %16
w: Mor- * * * * gen-|stern, wenn bricht her-|vor der Mor- gen|stern, da las- sen sie sich|hö- ren gern, da las- sen|
 D,2 B,,2 C,2 D,2 |1 G,,4 z2 G,2 :|2 G,,8 |] %19
w: sie sich hö- ren|gern, wenn|gern.|

